img/svg/profile-icons/mobile-phone-ico.svg

<svg width="22" height="22" viewBox="0 0 22 22" fill="none" xmlns="http://www.w3.org/2000/svg">
<path d="M16.8867 14.2708V3.4375C16.8867 2.48984 16.1156 1.71875 15.168 1.71875H6.83203C5.88437 1.71875 5.11328 2.48984 5.11328 3.4375V18.5625C5.11328 19.5102 5.88437 20.2812 6.83203 20.2812H15.168C16.1156 20.2812 16.8867 19.5102 16.8867 18.5625C16.8867 18.0878 17.2714 17.7031 17.7461 17.7031C18.2208 17.7031 18.6055 18.0878 18.6055 18.5625C18.6055 20.458 17.0635 22 15.168 22H6.83203C4.93654 22 3.39453 20.458 3.39453 18.5625V3.4375C3.39453 1.54201 4.93654 0 6.83203 0H15.168C17.0635 0 18.6055 1.54201 18.6055 3.4375V14.2708C18.6055 14.7455 18.2208 15.1302 17.7461 15.1302C17.2714 15.1302 16.8867 14.7455 16.8867 14.2708V14.2708ZM10.1406 18.095C10.1406 18.5697 10.5253 18.9544 11 18.9544C11.4747 18.9544 11.8594 18.5697 11.8594 18.095C11.8594 17.6204 11.4747 17.2357 11 17.2357C10.5253 17.2357 10.1406 17.6204 10.1406 18.095ZM13.2067 13.6263C13.9783 13.6302 14.6597 13.3984 15.1497 12.9084L15.1592 12.8978C15.5339 12.4804 15.5109 11.8411 15.107 11.4518C14.298 10.6715 13.489 10.2022 12.6848 10.9874L11.9901 11.6769C11.9901 11.6769 11.0915 11.2768 10.0752 10.2603L10.0262 10.2115C9.00967 9.19498 8.60953 8.29633 8.60953 8.29633L9.29904 7.60161C10.0842 6.79762 9.61493 5.98843 8.83461 5.17941C8.44537 4.77557 7.80605 4.75258 7.38861 5.12721L7.37787 5.13678C6.88809 5.62672 6.6563 6.30818 6.66016 7.07977C6.66704 8.4536 7.42084 10.1136 8.79382 11.4878C10.168 12.8607 11.828 13.6147 13.202 13.6214L13.2067 13.6263Z" fill="#4C51CC"/>
</svg>

<svg width="22" height="22" fill="none" xmlns="http://www.w3.org/2000/svg"><path d="M16.887 14.27V3.439a1.72 1.72 0 00-1.719-1.72H6.832a1.72 1.72 0 00-1.719 1.72v15.124a1.72 1.72 0 001.719 1.72h8.336a1.72 1.72 0 001.719-1.72.86.86 0 111.718 0A3.441 3.441 0 0115.168 22H6.832a3.441 3.441 0 01-3.437-3.438V3.438A3.441 3.441 0 016.832 0h8.336a3.441 3.441 0 013.438 3.438V14.27a.86.86 0 11-1.72 0zm-6.746 3.825a.86.86 0 101.718 0 .86.86 0 00-1.718 0zm3.066-4.469c.771.004 1.453-.228 1.943-.718l.01-.01a1.042 1.042 0 00-.053-1.446c-.809-.78-1.618-1.25-2.422-.465l-.695.69s-.899-.4-1.915-1.417l-.049-.049C9.01 9.195 8.61 8.296 8.61 8.296l.689-.694c.785-.804.316-1.614-.464-2.423a1.042 1.042 0 00-1.446-.052l-.011.01c-.49.49-.722 1.171-.718 1.943.007 1.374.76 3.034 2.134 4.408 1.374 1.373 3.034 2.127 4.408 2.133l.005.005z" fill="#4C51CC"/></svg>
